X: 1696
T: Segâh Seyir
C: Şefik Gürmeriç
O: Turkey
F: http://compmusic.upf.edu/node/140
N: segah--seyir--sofyan--1--sefik_gurmeric
N: makam= segah
N: form= seyir
N: usul= sofyan = 4/4
M: 4/4
L: 1/16
K: C _1/4B _1/4e ^f 
Q: 1/4=60
%%MIDI tuningsystem comma53
G4 c2B^A B4 c4  | d2e2 d2c2 B3^A G4  | \
w:   |   | 
z4 B2c2 d4 e4  | =f4 e2d2 dcBc d4  | 
w:   |   | 
z4 g2f^e f8  | ^e2f2 g2ab ag^3/4f_1/4e d4  | \
w:   |   | 
z4 e2=f2 e2f2 e2d2  | 
w:   | 
ag=fe d2e2 d2(3cBc B4  | z4 B2c2 B4 c4  | \
w:   |   | 
=fede d2c_2/4B A6z2  | 
w:   | 
A4 cB^A2 B4 c4  | d2e2 d2c2 B3^A G4  | \
w:   |   | 
z2=f4=ed d3c dccB  | 
w:   | 
B^AB12z2  | |


